312
albertroad.htmlalbertroad.htmlalbertroad.htmlalbertroad.htmlalbertroad.htmlalbertroad.htmlalbertroad.htmlalbertroad.htmlalbertroad.htmlFrom <I>Altan: Harvest Storm</I>



albertroad.html

T:McFarley's
M:4/4
L:1/8
R:reel
D:Altan: Harvest Storm
Z:Devin McCabe
K:D
(3ABc |: dD (3DDD EDB,D | A,DFA BAFA | dDcD BDAD | EDFA BAFA |
!dD (3DDD EDB,D | A,DFA BAFA | (3Bcd ec dBAF |1 EDEF D2 (3ABc :|2 EDEF D
2ag |
!:fgab afdg | fdad bdad | efga ge=cf | e=cgc acgc |
!fgaf bagf | gfeg fdBc | defd ecdB |1 AFEF D2ag :|2 AFEF D2 (3ABc ||

%  ABC2Win Version 2.1 1/20/2001



albertroad.htmlalbertroad.htmlalbertroad.htmlalbertroad.htmlalbertroad.htmlalbertroad.html
0

